public/images/timeline/hornet.svg

<svg width="16" height="16" viewBox="0 0 16 16" fill="none" xmlns="http://www.w3.org/2000/svg">
<g clip-path="url(#clip0_1184_362)">
<g filter="url(#filter0_f_1184_362)">
<path fill-rule="evenodd" clip-rule="evenodd" d="M12.5693 8.88886C12.5693 9.39819 12.4956 9.91819 12.3627 10.4284V10.4391L12.36 10.4377C12.36 10.4378 12.3599 10.4379 12.3599 10.438C12.2 10.3736 12.0432 10.3016 11.8902 10.2222H4.10926C3.94983 10.3048 3.79346 10.3764 3.64017 10.438C3.64011 10.4377 3.64005 10.4375 3.64 10.4373L3.63733 10.4386V10.4284C3.50489 9.91864 3.43066 9.39819 3.43066 8.88886C3.43066 7.03953 4.37378 5.87597 5.76755 5.31775C5.58222 4.86975 5.472 4.38131 5.472 3.89553C5.472 3.19286 5.692 2.78486 6.05689 2.54797C5.57244 2.33375 4.93866 1.88131 4.71155 1.65419C4.36444 1.30664 4.29422 0.814639 4.55422 0.55375C4.81466 0.293306 5.30711 0.363972 5.65422 0.711083C5.92578 0.983083 6.52 1.83553 6.64222 2.31953C7.03466 2.23331 7.5 2.22219 8 2.22219C8.50044 2.22219 8.96533 2.23331 9.35822 2.31997C9.48044 1.83597 10.0747 0.983083 10.3462 0.711528C10.6938 0.363972 11.1858 0.29375 11.4462 0.554194C11.7067 0.814639 11.636 1.30708 11.2889 1.65419C11.0622 1.88131 10.4284 2.33375 9.94355 2.54797C10.308 2.78531 10.528 3.19286 10.528 3.89553C10.528 4.38086 10.4178 4.86975 10.2324 5.31775C11.6262 5.87597 12.5693 7.03953 12.5693 8.88886ZM4.17318 11.8357C4.79815 13.0611 5.77266 14.0711 6.91687 14.475C6.4863 14.3214 6.07974 14.0815 5.70615 13.7778H10.2942C9.89936 14.0985 9.46809 14.3481 9.01056 14.5001C10.19 14.1125 11.1955 13.0801 11.8334 11.8232C11.8031 11.8826 11.7719 11.9415 11.7399 12H4.25993C4.23034 11.9457 4.20141 11.8909 4.17318 11.8357ZM8.44317 14.6348C8.29739 14.6558 8.14955 14.6667 7.99993 14.6667C7.85023 14.6667 7.70229 14.6558 7.55639 14.6348L7.55555 14.6666C7.55555 15.4031 7.75466 16 8 16C8.24577 16 8.44444 15.4031 8.44444 14.6666C8.44444 14.6591 8.44407 14.6522 8.44368 14.6451C8.4435 14.6417 8.44332 14.6383 8.44317 14.6348ZM9.50037 8.44446H6.49948C7.14926 7.81157 7.66171 7.16401 7.87993 6.66668H8.11993C8.33815 7.16401 8.85059 7.81157 9.50037 8.44446Z" fill="white"/>
</g>
<g filter="url(#filter1_f_1184_362)">
<path d="M8 6.00218C8 7.17862 4.50756 9.81729 2.66667 9.81729C0.825778 9.81729 0 8.73151 0 7.55507C0 6.37907 0.825778 5.55729 2.66667 5.55729C4.508 5.55774 8 4.82663 8 6.00218V6.00218ZM8 6.00218C8 7.17862 11.492 9.81729 13.3333 9.81729C15.1747 9.81729 16 8.73151 16 7.55507C16 6.37907 15.1747 5.55729 13.3333 5.55729C11.492 5.55729 8 4.82663 8 6.00218V6.00218Z" fill="white"/>
</g>
<path fill-rule="evenodd" clip-rule="evenodd" d="M12.5693 8.88886C12.5693 9.39819 12.4956 9.91819 12.3627 10.4284V10.4391L12.36 10.4377C12.36 10.4378 12.3599 10.4379 12.3599 10.438C12.2 10.3736 12.0432 10.3016 11.8902 10.2222H4.10926C3.94983 10.3048 3.79346 10.3764 3.64017 10.438C3.64011 10.4377 3.64005 10.4375 3.64 10.4373L3.63733 10.4386V10.4284C3.50489 9.91864 3.43066 9.39819 3.43066 8.88886C3.43066 7.03953 4.37378 5.87597 5.76755 5.31775C5.58222 4.86975 5.472 4.38131 5.472 3.89553C5.472 3.19286 5.692 2.78486 6.05689 2.54797C5.57244 2.33375 4.93866 1.88131 4.71155 1.65419C4.36444 1.30664 4.29422 0.814639 4.55422 0.55375C4.81466 0.293306 5.30711 0.363972 5.65422 0.711083C5.92578 0.983083 6.52 1.83553 6.64222 2.31953C7.03466 2.23331 7.5 2.22219 8 2.22219C8.50044 2.22219 8.96533 2.23331 9.35822 2.31997C9.48044 1.83597 10.0747 0.983083 10.3462 0.711528C10.6938 0.363972 11.1858 0.29375 11.4462 0.554194C11.7067 0.814639 11.636 1.30708 11.2889 1.65419C11.0622 1.88131 10.4284 2.33375 9.94355 2.54797C10.308 2.78531 10.528 3.19286 10.528 3.89553C10.528 4.38086 10.4178 4.86975 10.2324 5.31775C11.6262 5.87597 12.5693 7.03953 12.5693 8.88886ZM4.17318 11.8357C4.79811 13.061 5.77253 14.071 6.91664 14.475C6.48616 14.3213 6.07967 14.0814 5.70615 13.7778H10.2942C9.89943 14.0985 9.46825 14.348 9.01081 14.5C10.1902 14.1123 11.1956 13.08 11.8334 11.8232C11.8031 11.8826 11.7719 11.9415 11.7399 12H4.25993C4.23034 11.9457 4.20141 11.8909 4.17318 11.8357ZM8.44317 14.6348C8.29739 14.6558 8.14955 14.6667 7.99993 14.6667C7.85023 14.6667 7.70229 14.6558 7.55639 14.6348L7.55555 14.6666C7.55555 15.4031 7.75466 16 8 16C8.24577 16 8.44444 15.4031 8.44444 14.6666C8.44444 14.6591 8.44407 14.6522 8.44368 14.6451C8.4435 14.6417 8.44332 14.6383 8.44317 14.6348ZM9.50037 8.44446H6.49948C7.14926 7.81157 7.66171 7.16401 7.87993 6.66668H8.11993C8.33815 7.16401 8.85059 7.81157 9.50037 8.44446Z" fill="white"/>
<path d="M8 6.00218C8 7.17862 4.50756 9.81729 2.66667 9.81729C0.825778 9.81729 0 8.73151 0 7.55507C0 6.37907 0.825778 5.55729 2.66667 5.55729C4.508 5.55774 8 4.82663 8 6.00218ZM8 6.00218C8 7.17862 11.492 9.81729 13.3333 9.81729C15.1747 9.81729 16 8.73151 16 7.55507C16 6.37907 15.1747 5.55729 13.3333 5.55729C11.492 5.55729 8 4.82663 8 6.00218Z" fill="white"/>
</g>
<defs>
<filter id="filter0_f_1184_362" x="2.43066" y="-0.603394" width="11.1387" height="17.6034" filterUnits="userSpaceOnUse" color-interpolation-filters="sRGB">
<feFlood flood-opacity="0" result="BackgroundImageFix"/>
<feBlend mode="normal" in="SourceGraphic" in2="BackgroundImageFix" result="shape"/>
<feGaussianBlur stdDeviation="0.5" result="effect1_foregroundBlur_1184_362"/>
</filter>
<filter id="filter1_f_1184_362" x="-1" y="4.33289" width="18" height="6.48438" filterUnits="userSpaceOnUse" color-interpolation-filters="sRGB">
<feFlood flood-opacity="0" result="BackgroundImageFix"/>
<feBlend mode="normal" in="SourceGraphic" in2="BackgroundImageFix" result="shape"/>
<feGaussianBlur stdDeviation="0.5" result="effect1_foregroundBlur_1184_362"/>
</filter>
<clipPath id="clip0_1184_362">
<rect width="16" height="16" fill="white"/>
</clipPath>
</defs>
</svg>

<svg width="16" height="16" fill="none" xmlns="http://www.w3.org/2000/svg"><g clip-path="url(#a)"><g filter="url(#b)"><path fill-rule="evenodd" clip-rule="evenodd" d="M12.57 8.889c0 .51-.074 1.03-.207 1.54v.01l-.003-.001a5.397 5.397 0 0 1-.47-.216H4.11c-.16.083-.317.154-.47.216h-.003v-.01a6.154 6.154 0 0 1-.206-1.54c0-1.848.943-3.012 2.337-3.57a3.754 3.754 0 0 1-.296-1.422c0-.703.22-1.111.585-1.348-.485-.214-1.118-.667-1.345-.894-.348-.347-.418-.84-.158-1.1.26-.26.753-.19 1.1.157.272.272.866 1.125.988 1.609.393-.087.858-.098 1.358-.098.5 0 .965.011 1.358.098.122-.484.717-1.337.988-1.608.348-.348.84-.418 1.1-.158.26.26.19.753-.157 1.1-.227.227-.86.68-1.345.894.364.237.584.645.584 1.348 0 .485-.11.974-.296 1.422 1.394.558 2.337 1.722 2.337 3.57zm-8.397 2.947c.625 1.225 1.6 2.235 2.744 2.639a4.134 4.134 0 0 1-1.21-.697h4.587a4.1 4.1 0 0 1-1.283.722c1.179-.387 2.184-1.42 2.822-2.677-.03.06-.061.118-.093.177H4.26a7.09 7.09 0 0 1-.087-.164zm4.27 2.799a3.106 3.106 0 0 1-.887 0v.032c0 .736.199 1.333.444 1.333.246 0 .444-.597.444-1.333a.382.382 0 0 0 0-.032zM9.5 8.445h-3c.65-.633 1.162-1.281 1.38-1.778h.24c.218.497.73 1.145 1.38 1.777z" fill="#fff"/></g><g filter="url(#c)"><path d="M8 6.002C8 7.18 4.508 9.817 2.667 9.817.826 9.817 0 8.732 0 7.555 0 6.38.826 5.557 2.667 5.557c1.841 0 5.333-.73 5.333.445zm0 0c0 1.177 3.492 3.815 5.333 3.815C15.175 9.817 16 8.732 16 7.555c0-1.176-.825-1.998-2.667-1.998-1.841 0-5.333-.73-5.333.445z" fill="#fff"/></g><path fill-rule="evenodd" clip-rule="evenodd" d="M12.57 8.889c0 .51-.074 1.03-.207 1.54v.01l-.003-.001a5.397 5.397 0 0 1-.47-.216H4.11c-.16.083-.317.154-.47.216h-.003v-.01a6.154 6.154 0 0 1-.206-1.54c0-1.848.943-3.012 2.337-3.57a3.754 3.754 0 0 1-.296-1.422c0-.703.22-1.111.585-1.348-.485-.214-1.118-.667-1.345-.894-.348-.347-.418-.84-.158-1.1.26-.26.753-.19 1.1.157.272.272.866 1.125.988 1.609.393-.087.858-.098 1.358-.098.5 0 .965.011 1.358.098.122-.484.717-1.337.988-1.608.348-.348.84-.418 1.1-.158.26.26.19.753-.157 1.1-.227.227-.86.68-1.345.894.364.237.584.645.584 1.348 0 .485-.11.974-.296 1.422 1.394.558 2.337 1.722 2.337 3.57zm-8.397 2.947c.625 1.225 1.6 2.235 2.744 2.639a4.137 4.137 0 0 1-1.21-.697h4.587a4.1 4.1 0 0 1-1.283.722c1.18-.388 2.185-1.42 2.822-2.677-.03.06-.061.118-.093.177H4.26a7.09 7.09 0 0 1-.087-.164zm4.27 2.799a3.106 3.106 0 0 1-.887 0v.032c0 .736.199 1.333.444 1.333.246 0 .444-.597.444-1.333a.382.382 0 0 0 0-.032zM9.5 8.445h-3c.65-.633 1.162-1.281 1.38-1.778h.24c.218.497.73 1.145 1.38 1.777z" fill="#fff"/><path d="M8 6.002C8 7.18 4.508 9.817 2.667 9.817.826 9.817 0 8.732 0 7.555 0 6.38.826 5.557 2.667 5.557c1.841 0 5.333-.73 5.333.445zm0 0c0 1.177 3.492 3.815 5.333 3.815C15.175 9.817 16 8.732 16 7.555c0-1.176-.825-1.998-2.667-1.998-1.841 0-5.333-.73-5.333.445z" fill="#fff"/></g><defs><filter id="b" x="2.431" y="-.603" width="11.139" height="17.603" filterUnits="userSpaceOnUse" color-interpolation-filters="sRGB"><feFlood flood-opacity="0" result="BackgroundImageFix"/><feBlend in="SourceGraphic" in2="BackgroundImageFix" result="shape"/><feGaussianBlur stdDeviation=".5" result="effect1_foregroundBlur_1184_362"/></filter><filter id="c" x="-1" y="4.333" width="18" height="6.484" filterUnits="userSpaceOnUse" color-interpolation-filters="sRGB"><feFlood flood-opacity="0" result="BackgroundImageFix"/><feBlend in="SourceGraphic" in2="BackgroundImageFix" result="shape"/><feGaussianBlur stdDeviation=".5" result="effect1_foregroundBlur_1184_362"/></filter><clipPath id="a"><path fill="#fff" d="M0 0h16v16H0z"/></clipPath></defs></svg>
